X:110
%%pagewidth 9in
%%vocalfont Baskerville10Pro 14
T:Come live with me, and be my love
M:3/8
L:1/8
K:D
%%score 1 2
V:1 clef-treble
V:2 clef-bass octave=-1
V:1
[DFB]|[DFB]2[DFB]|(B>c)d&[EG]2F|[Ee]2[Fd]|[Fc]2[Gc]|[Fd]2[FAd]|(d>e)f&[GB]2[FA]|(e>d)c&G2[EG]|
w:Come, live with me,* and be my love, And we will all* the plea-*sures
V:2
B,|B,2B|E2[DB]|[C^A]2[B,B]|[F^A]2=A|[DA]2D|G2D|E2A|z
V:1
[Fd]2d|(fd)[DA]|(B>c)d&[DG]2[DA]|[Ge]2[Fd]|[F^Ac]2[Ac]|(d>e)f&[FB]2[FB]|[Be]2[EGB]|[DFd]2[CF^A]|[DFB]2||
w:prove That hills* and val-*leys, dale and field, And all* the crag-gy moun-tains yield.
V:2
Dz|z2F|G2F|E2B,|F2F|B2D|G2E|F2F,|B,2||

